X:495
T: LIEBLICH HAT SICH GESELLET
N: E0456
O: Europa, Mitteleuropa, Deutschland
R: Liebes - Lied
M: 3/4
L: 1/8
K: F
F2 | A4A2 | A4F2 | c4d2 | c4
d2 | c4B2 | A2G4 | F6- | F2z2
F2 | A4A2 | A4F2 | c4d2 | c4
d2 | c4B2 | A2G4 | F6- | F2z2
f2 | f4f2 | e4e2 | f2d4 | c4
f2 | e2g3f | e2d4 | c6- | c2z2
d2 | c4B2 | A2G4 | F6- | F2z2

@@@ Tune index: 4145
